static/img/kroki/206ce3f1242af685acbdb0453b4be484.svg

<?xml version="1.0" encoding="us-ascii" standalone="no"?><svg xmlns="http://www.w3.org/2000/svg" xmlns:xlink="http://www.w3.org/1999/xlink" contentStyleType="text/css" height="927px" preserveAspectRatio="none" style="width:440px;height:927px;" version="1.1" viewBox="0 0 440 927" width="440px" zoomAndPan="magnify"><defs/><g><!--class aws_resource--><g id="elem_aws_resource"><rect codeLine="22" fill="#3D176E" height="74.0859" id="aws_resource" rx="2.5" ry="2.5" style="stroke:#000D19;stroke-width:0.5;" width="155" x="142.5" y="438.76"/><ellipse cx="157.5" cy="458.6545" fill="#ADD1B2" rx="11" ry="11" style="stroke:#181818;stroke-width:1.0;"/><path d="M160.4688,464.2952 Q159.8906,464.592 159.25,464.7327 Q158.6094,464.8889 157.9063,464.8889 Q155.4063,464.8889 154.0781,463.2483 Q152.7656,461.592 152.7656,458.467 Q152.7656,455.342 154.0781,453.6858 Q155.4063,452.0295 157.9063,452.0295 Q158.6094,452.0295 159.25,452.1858 Q159.9063,452.342 160.4688,452.6389 L160.4688,455.3577 Q159.8438,454.7795 159.25,454.5139 Q158.6563,454.2327 158.0313,454.2327 Q156.6875,454.2327 156,455.3108 Q155.3125,456.3733 155.3125,458.467 Q155.3125,460.5608 156,461.6389 Q156.6875,462.7014 158.0313,462.7014 Q158.6563,462.7014 159.25,462.4358 Q159.8438,462.1545 160.4688,461.5764 L160.4688,464.2952 Z " fill="#000000"/><text fill="#D9B8FF" font-family="Helvetica" font-size="17" lengthAdjust="spacing" textLength="113" x="176.5" y="464.5398">aws_resource</text><line style="stroke:#000D19;stroke-width:0.5;" x1="143.5" x2="296.5" y1="478.5491" y2="478.5491"/><text fill="#D9B8FF" font-family="sans-serif" font-size="14" font-weight="bold" lengthAdjust="spacing" textLength="26" x="153.5" y="500.5442">arn</text><text fill="#D9B8FF" font-family="sans-serif" font-size="14" lengthAdjust="spacing" textLength="48" x="179.5" y="500.5442">: string</text></g><!--class aws_sagemaker_code_repository--><g id="elem_aws_sagemaker_code_repository"><rect codeLine="25" fill="#3D176E" height="100.3828" id="aws_sagemaker_code_repository" rx="2.5" ry="2.5" style="stroke:#000D19;stroke-width:0.5;" width="426" x="7" y="633.85"/><ellipse cx="73.75" cy="653.7445" fill="#ADD1B2" rx="11" ry="11" style="stroke:#181818;stroke-width:1.0;"/><path d="M76.7188,659.3852 Q76.1406,659.682 75.5,659.8227 Q74.8594,659.9789 74.1563,659.9789 Q71.6563,659.9789 70.3281,658.3383 Q69.0156,656.682 69.0156,653.557 Q69.0156,650.432 70.3281,648.7758 Q71.6563,647.1195 74.1563,647.1195 Q74.8594,647.1195 75.5,647.2758 Q76.1563,647.432 76.7188,647.7289 L76.7188,650.4477 Q76.0938,649.8695 75.5,649.6039 Q74.9063,649.3227 74.2813,649.3227 Q72.9375,649.3227 72.25,650.4008 Q71.5625,651.4633 71.5625,653.557 Q71.5625,655.6508 72.25,656.7289 Q72.9375,657.7914 74.2813,657.7914 Q74.9063,657.7914 75.5,657.5258 Q76.0938,657.2445 76.7188,656.6664 L76.7188,659.3852 Z " fill="#000000"/><text fill="#D9B8FF" font-family="Helvetica" font-size="17" lengthAdjust="spacing" textLength="274" x="99.25" y="659.6298">aws_sagemaker_code_repository</text><line style="stroke:#000D19;stroke-width:0.5;" x1="8" x2="432" y1="673.6391" y2="673.6391"/><text fill="#D9B8FF" font-family="sans-serif" font-size="14" font-weight="bold" lengthAdjust="spacing" textLength="211" x="18" y="695.6342">code_repository_git_config</text><text fill="#D9B8FF" font-family="sans-serif" font-size="14" lengthAdjust="spacing" textLength="193" x="229" y="695.6342">: aws_sagemaker_git_config</text><text fill="#D9B8FF" font-family="sans-serif" font-size="14" font-weight="bold" lengthAdjust="spacing" textLength="156" x="18" y="721.9311">code_repository_url</text><text fill="#D9B8FF" font-family="sans-serif" font-size="14" lengthAdjust="spacing" textLength="48" x="174" y="721.9311">: string</text></g><!--class aws_sagemaker_git_config--><g id="elem_aws_sagemaker_git_config"><rect codeLine="29" fill="#3D176E" height="126.6797" id="aws_sagemaker_git_config" rx="2.5" ry="2.5" style="stroke:#000D19;stroke-width:0.5;" width="266" x="87" y="794.23"/><ellipse cx="102" cy="814.1245" fill="#ADD1B2" rx="11" ry="11" style="stroke:#181818;stroke-width:1.0;"/><path d="M104.9688,819.7652 Q104.3906,820.062 103.75,820.2027 Q103.1094,820.3589 102.4063,820.3589 Q99.9063,820.3589 98.5781,818.7183 Q97.2656,817.062 97.2656,813.937 Q97.2656,810.812 98.5781,809.1558 Q99.9063,807.4995 102.4063,807.4995 Q103.1094,807.4995 103.75,807.6558 Q104.4063,807.812 104.9688,808.1089 L104.9688,810.8277 Q104.3438,810.2495 103.75,809.9839 Q103.1563,809.7027 102.5313,809.7027 Q101.1875,809.7027 100.5,810.7808 Q99.8125,811.8433 99.8125,813.937 Q99.8125,816.0308 100.5,817.1089 Q101.1875,818.1714 102.5313,818.1714 Q103.1563,818.1714 103.75,817.9058 Q104.3438,817.6245 104.9688,817.0464 L104.9688,819.7652 Z " fill="#000000"/><text fill="#D9B8FF" font-family="Helvetica" font-size="17" lengthAdjust="spacing" textLength="224" x="121" y="820.0098">aws_sagemaker_git_config</text><line style="stroke:#000D19;stroke-width:0.5;" x1="88" x2="352" y1="834.0191" y2="834.0191"/><text fill="#D9B8FF" font-family="sans-serif" font-size="14" font-weight="bold" lengthAdjust="spacing" textLength="55" x="98" y="856.0142">branch</text><text fill="#D9B8FF" font-family="sans-serif" font-size="14" lengthAdjust="spacing" textLength="48" x="153" y="856.0142">: string</text><text fill="#D9B8FF" font-family="sans-serif" font-size="14" font-weight="bold" lengthAdjust="spacing" textLength="110" x="98" y="882.3111">repository_url</text><text fill="#D9B8FF" font-family="sans-serif" font-size="14" lengthAdjust="spacing" textLength="48" x="208" y="882.3111">: string</text><text fill="#D9B8FF" font-family="sans-serif" font-size="14" font-weight="bold" lengthAdjust="spacing" textLength="84" x="98" y="908.6079">secret_arn</text><text fill="#D9B8FF" font-family="sans-serif" font-size="14" lengthAdjust="spacing" textLength="48" x="182" y="908.6079">: string</text></g><!--class resource--><g id="elem_resource"><rect codeLine="34" fill="#3D176E" height="310.7578" id="resource" rx="2.5" ry="2.5" style="stroke:#000D19;stroke-width:0.5;" width="227" x="106.5" y="7"/><ellipse cx="175.25" cy="26.8945" fill="#ADD1B2" rx="11" ry="11" style="stroke:#181818;stroke-width:1.0;"/><path d="M178.2188,32.5352 Q177.6406,32.832 177,32.9727 Q176.3594,33.1289 175.6563,33.1289 Q173.1563,33.1289 171.8281,31.4883 Q170.5156,29.832 170.5156,26.707 Q170.5156,23.582 171.8281,21.9258 Q173.1563,20.2695 175.6563,20.2695 Q176.3594,20.2695 177,20.4258 Q177.6563,20.582 178.2188,20.8789 L178.2188,23.5977 Q177.5938,23.0195 177,22.7539 Q176.4063,22.4727 175.7813,22.4727 Q174.4375,22.4727 173.75,23.5508 Q173.0625,24.6133 173.0625,26.707 Q173.0625,28.8008 173.75,29.8789 Q174.4375,30.9414 175.7813,30.9414 Q176.4063,30.9414 177,30.6758 Q177.5938,30.3945 178.2188,29.8164 L178.2188,32.5352 Z " fill="#000000"/><text fill="#D9B8FF" font-family="Helvetica" font-size="17" lengthAdjust="spacing" textLength="71" x="200.75" y="32.7798">resource</text><line style="stroke:#000D19;stroke-width:0.5;" x1="107.5" x2="332.5" y1="46.7891" y2="46.7891"/><text fill="#D9B8FF" font-family="sans-serif" font-size="14" font-weight="bold" lengthAdjust="spacing" textLength="29" x="117.5" y="68.7842">age</text><text fill="#D9B8FF" font-family="sans-serif" font-size="14" lengthAdjust="spacing" textLength="66" x="146.5" y="68.7842">: duration</text><text fill="#D9B8FF" font-family="sans-serif" font-size="14" font-weight="bold" lengthAdjust="spacing" textLength="43" x="117.5" y="95.0811">atime</text><text fill="#D9B8FF" font-family="sans-serif" font-size="14" lengthAdjust="spacing" textLength="70" x="160.5" y="95.0811">: datetime</text><text fill="#D9B8FF" font-family="sans-serif" font-size="14" font-weight="bold" lengthAdjust="spacing" textLength="43" x="117.5" y="121.3779">ctime</text><text fill="#D9B8FF" font-family="sans-serif" font-size="14" lengthAdjust="spacing" textLength="70" x="160.5" y="121.3779">: datetime</text><text fill="#D9B8FF" font-family="sans-serif" font-size="14" font-weight="bold" lengthAdjust="spacing" textLength="14" x="117.5" y="147.6748">id</text><text fill="#D9B8FF" font-family="sans-serif" font-size="14" lengthAdjust="spacing" textLength="48" x="131.5" y="147.6748">: string</text><text fill="#D9B8FF" font-family="sans-serif" font-size="14" font-weight="bold" lengthAdjust="spacing" textLength="33" x="117.5" y="173.9717">kind</text><text fill="#D9B8FF" font-family="sans-serif" font-size="14" lengthAdjust="spacing" textLength="48" x="150.5" y="173.9717">: string</text><text fill="#D9B8FF" font-family="sans-serif" font-size="14" font-weight="bold" lengthAdjust="spacing" textLength="90" x="117.5" y="200.2686">last_access</text><text fill="#D9B8FF" font-family="sans-serif" font-size="14" lengthAdjust="spacing" textLength="66" x="207.5" y="200.2686">: duration</text><text fill="#D9B8FF" font-family="sans-serif" font-size="14" font-weight="bold" lengthAdjust="spacing" textLength="90" x="117.5" y="226.5654">last_update</text><text fill="#D9B8FF" font-family="sans-serif" font-size="14" lengthAdjust="spacing" textLength="66" x="207.5" y="226.5654">: duration</text><text fill="#D9B8FF" font-family="sans-serif" font-size="14" font-weight="bold" lengthAdjust="spacing" textLength="48" x="117.5" y="252.8623">mtime</text><text fill="#D9B8FF" font-family="sans-serif" font-size="14" lengthAdjust="spacing" textLength="70" x="165.5" y="252.8623">: datetime</text><text fill="#D9B8FF" font-family="sans-serif" font-size="14" font-weight="bold" lengthAdjust="spacing" textLength="43" x="117.5" y="279.1592">name</text><text fill="#D9B8FF" font-family="sans-serif" font-size="14" lengthAdjust="spacing" textLength="48" x="160.5" y="279.1592">: string</text><text fill="#D9B8FF" font-family="sans-serif" font-size="14" font-weight="bold" lengthAdjust="spacing" textLength="34" x="117.5" y="305.4561">tags</text><text fill="#D9B8FF" font-family="sans-serif" font-size="14" lengthAdjust="spacing" textLength="171" x="151.5" y="305.4561">: dictionary[string, string]</text></g><!--reverse link resource to aws_resource--><g id="link_resource_aws_resource"><path codeLine="46" d="M220,338.98 C220,376.79 220,413 220,438.52 " fill="none" id="resource-backto-aws_resource" style="stroke:#FFAF37;stroke-width:2.0;"/><polygon fill="none" points="213,339.18,220,319.18,227,339.18,213,339.18" style="stroke:#FFAF37;stroke-width:2.0;"/></g><!--reverse link aws_resource to aws_sagemaker_code_repository--><g id="link_aws_resource_aws_sagemaker_code_repository"><path codeLine="47" d="M220,533.99 C220,565.22 220,603.51 220,633.47 " fill="none" id="aws_resource-backto-aws_sagemaker_code_repository" style="stroke:#FFAF37;stroke-width:2.0;"/><polygon fill="none" points="213,534.2,220,514.2,227,534.2,213,534.2" style="stroke:#FFAF37;stroke-width:2.0;"/></g><!--link aws_sagemaker_code_repository to aws_sagemaker_git_config--><g id="link_aws_sagemaker_code_repository_aws_sagemaker_git_config"><path codeLine="48" d="M220,734.65 C220,751.28 220,770.12 220,787.93 " fill="none" id="aws_sagemaker_code_repository-to-aws_sagemaker_git_config" style="stroke:#FFAF37;stroke-width:2.0;"/><polygon fill="#FFAF37" points="220,792.93,224,783.93,220,787.93,216,783.93,220,792.93" style="stroke:#FFAF37;stroke-width:2.0;"/></g><!--SRC=[XPDRYzim48NV_Ii4-sPgIBgqsPHIs0qixSjIkdqh9KoaiIDYIsOqRaWl_xrIl9l8j-JDpFdcp1b9tcg50gkQ3wB2QeFa4hVJfWQ2IjmJsVtAbfR4JPv3VhleYu_My5NW2IeKdx7yXQmbz8dlMort1fqJRoFf0UIk8DiOrTepWN5UGiCHjIh1kNjcqfk6CGgZbfkxFE-JVTERMpLVlCS1PaaXlI2psKpDbttawgYBUv-8P_qRnJm-j2VBE8Wv676aBgOCH1HoiEYhFfdnAoYbJI7UHRLlRIOoI9twynQKtGSwXzB5OnmZeUL3ZQl1LhYyK_bY5Fuo1SjmSWBsRateR4CInPyaJO5Ccdxm1kH39FyYp4615UoGrj8gz5srTPej7OvzlTgwqEmva-iYs7Nxpzf8OqFbrG1dW-FiZN_HSXjrfUcaOPewb8Iy7b-qUnO51aGr1Aoj2HNMLLi3nl0T5XYfQTKPwU-bM_2pV08f_R_Qct1KcZfuzPHgP8w1jdGoPYXQHor36z3XHwkzUM5- -bLFItxycsLPvmqadGTnrYSlFxdyDBBiq-JT_GS0]--></g></svg>

<svg xmlns="http://www.w3.org/2000/svg" width="440" height="927" preserveAspectRatio="none" style="width:440px;height:927px"><rect width="155" height="74.086" x="142.5" y="438.76" fill="#3D176E" rx="2.5" ry="2.5" style="stroke:#000d19;stroke-width:.5"/><circle cx="157.5" cy="458.654" r="11" fill="#ADD1B2" style="stroke:#181818;stroke-width:1"/><path d="M160.469 464.295q-.578.297-1.219.438-.64.156-1.344.156-2.5 0-3.828-1.64-1.312-1.657-1.312-4.782t1.312-4.781q1.328-1.656 3.828-1.656.703 0 1.344.156.656.156 1.219.453v2.719q-.625-.579-1.219-.844-.594-.281-1.219-.281-1.344 0-2.031 1.078-.688 1.062-.688 3.156 0 2.094.688 3.172.688 1.062 2.031 1.062.625 0 1.219-.265.594-.281 1.219-.86v2.72Z"/><text x="176.5" y="464.54" fill="#D9B8FF" font-family="Helvetica" font-size="17" textLength="113">aws_resource</text><path d="M143.5 478.549h153" style="stroke:#000d19;stroke-width:.5"/><text x="153.5" y="500.544" fill="#D9B8FF" font-family="sans-serif" font-size="14" font-weight="bold" textLength="26">arn</text><text x="179.5" y="500.544" fill="#D9B8FF" font-family="sans-serif" font-size="14" textLength="48">: string</text><rect width="426" height="100.383" x="7" y="633.85" fill="#3D176E" rx="2.5" ry="2.5" style="stroke:#000d19;stroke-width:.5"/><circle cx="73.75" cy="653.745" r="11" fill="#ADD1B2" style="stroke:#181818;stroke-width:1"/><path d="M76.719 659.385q-.578.297-1.219.438-.64.156-1.344.156-2.5 0-3.828-1.64-1.312-1.657-1.312-4.782t1.312-4.781q1.328-1.656 3.828-1.656.703 0 1.344.156.656.156 1.219.453v2.719q-.625-.578-1.219-.844-.594-.281-1.219-.281-1.344 0-2.031 1.078-.688 1.062-.688 3.156 0 2.094.688 3.172.688 1.062 2.031 1.062.625 0 1.219-.265.594-.281 1.219-.86v2.72Z"/><text x="99.25" y="659.63" fill="#D9B8FF" font-family="Helvetica" font-size="17" textLength="274">aws_sagemaker_code_repository</text><path d="M8 673.639h424" style="stroke:#000d19;stroke-width:.5"/><text x="18" y="695.634" fill="#D9B8FF" font-family="sans-serif" font-size="14" font-weight="bold" textLength="211">code_repository_git_config</text><text x="229" y="695.634" fill="#D9B8FF" font-family="sans-serif" font-size="14" textLength="193">: aws_sagemaker_git_config</text><text x="18" y="721.931" fill="#D9B8FF" font-family="sans-serif" font-size="14" font-weight="bold" textLength="156">code_repository_url</text><text x="174" y="721.931" fill="#D9B8FF" font-family="sans-serif" font-size="14" textLength="48">: string</text><rect width="266" height="126.68" x="87" y="794.23" fill="#3D176E" rx="2.5" ry="2.5" style="stroke:#000d19;stroke-width:.5"/><circle cx="102" cy="814.125" r="11" fill="#ADD1B2" style="stroke:#181818;stroke-width:1"/><path d="M104.969 819.765q-.578.297-1.219.438-.64.156-1.344.156-2.5 0-3.828-1.64-1.312-1.657-1.312-4.782t1.312-4.781q1.328-1.656 3.828-1.656.703 0 1.344.156.656.156 1.219.453v2.719q-.625-.578-1.219-.844-.594-.281-1.219-.281-1.344 0-2.031 1.078-.688 1.062-.688 3.156 0 2.094.688 3.172.688 1.062 2.031 1.062.625 0 1.219-.265.594-.281 1.219-.86v2.72Z"/><text x="121" y="820.01" fill="#D9B8FF" font-family="Helvetica" font-size="17" textLength="224">aws_sagemaker_git_config</text><path d="M88 834.019h264" style="stroke:#000d19;stroke-width:.5"/><text x="98" y="856.014" fill="#D9B8FF" font-family="sans-serif" font-size="14" font-weight="bold" textLength="55">branch</text><text x="153" y="856.014" fill="#D9B8FF" font-family="sans-serif" font-size="14" textLength="48">: string</text><text x="98" y="882.311" fill="#D9B8FF" font-family="sans-serif" font-size="14" font-weight="bold" textLength="110">repository_url</text><text x="208" y="882.311" fill="#D9B8FF" font-family="sans-serif" font-size="14" textLength="48">: string</text><text x="98" y="908.608" fill="#D9B8FF" font-family="sans-serif" font-size="14" font-weight="bold" textLength="84">secret_arn</text><text x="182" y="908.608" fill="#D9B8FF" font-family="sans-serif" font-size="14" textLength="48">: string</text><rect width="227" height="310.758" x="106.5" y="7" fill="#3D176E" rx="2.5" ry="2.5" style="stroke:#000d19;stroke-width:.5"/><circle cx="175.25" cy="26.895" r="11" fill="#ADD1B2" style="stroke:#181818;stroke-width:1"/><path d="M178.219 32.535q-.578.297-1.219.438-.64.156-1.344.156-2.5 0-3.828-1.64-1.312-1.657-1.312-4.782t1.312-4.781q1.328-1.656 3.828-1.656.703 0 1.344.156.656.156 1.219.453v2.719q-.625-.578-1.219-.844-.594-.281-1.219-.281-1.344 0-2.031 1.078-.688 1.062-.688 3.156 0 2.094.688 3.172.688 1.062 2.031 1.062.625 0 1.219-.265.594-.281 1.219-.86v2.72Z"/><text x="200.75" y="32.78" fill="#D9B8FF" font-family="Helvetica" font-size="17" textLength="71">resource</text><path d="M107.5 46.789h225" style="stroke:#000d19;stroke-width:.5"/><text x="117.5" y="68.784" fill="#D9B8FF" font-family="sans-serif" font-size="14" font-weight="bold" textLength="29">age</text><text x="146.5" y="68.784" fill="#D9B8FF" font-family="sans-serif" font-size="14" textLength="66">: duration</text><text x="117.5" y="95.081" fill="#D9B8FF" font-family="sans-serif" font-size="14" font-weight="bold" textLength="43">atime</text><text x="160.5" y="95.081" fill="#D9B8FF" font-family="sans-serif" font-size="14" textLength="70">: datetime</text><text x="117.5" y="121.378" fill="#D9B8FF" font-family="sans-serif" font-size="14" font-weight="bold" textLength="43">ctime</text><text x="160.5" y="121.378" fill="#D9B8FF" font-family="sans-serif" font-size="14" textLength="70">: datetime</text><text x="117.5" y="147.675" fill="#D9B8FF" font-family="sans-serif" font-size="14" font-weight="bold" textLength="14">id</text><text x="131.5" y="147.675" fill="#D9B8FF" font-family="sans-serif" font-size="14" textLength="48">: string</text><text x="117.5" y="173.972" fill="#D9B8FF" font-family="sans-serif" font-size="14" font-weight="bold" textLength="33">kind</text><text x="150.5" y="173.972" fill="#D9B8FF" font-family="sans-serif" font-size="14" textLength="48">: string</text><text x="117.5" y="200.269" fill="#D9B8FF" font-family="sans-serif" font-size="14" font-weight="bold" textLength="90">last_access</text><text x="207.5" y="200.269" fill="#D9B8FF" font-family="sans-serif" font-size="14" textLength="66">: duration</text><text x="117.5" y="226.565" fill="#D9B8FF" font-family="sans-serif" font-size="14" font-weight="bold" textLength="90">last_update</text><text x="207.5" y="226.565" fill="#D9B8FF" font-family="sans-serif" font-size="14" textLength="66">: duration</text><text x="117.5" y="252.862" fill="#D9B8FF" font-family="sans-serif" font-size="14" font-weight="bold" textLength="48">mtime</text><text x="165.5" y="252.862" fill="#D9B8FF" font-family="sans-serif" font-size="14" textLength="70">: datetime</text><text x="117.5" y="279.159" fill="#D9B8FF" font-family="sans-serif" font-size="14" font-weight="bold" textLength="43">name</text><text x="160.5" y="279.159" fill="#D9B8FF" font-family="sans-serif" font-size="14" textLength="48">: string</text><text x="117.5" y="305.456" fill="#D9B8FF" font-family="sans-serif" font-size="14" font-weight="bold" textLength="34">tags</text><text x="151.5" y="305.456" fill="#D9B8FF" font-family="sans-serif" font-size="14" textLength="171">: dictionary[string, string]</text><path fill="none" d="M220 338.98v99.54m-7-99.34 7-20 7 20h-14zm7 194.81v99.48m-7-99.27 7-20 7 20h-14zm7 200.45v53.28" style="stroke:#ffaf37;stroke-width:2"/><path fill="#FFAF37" d="m220 792.93 4-9-4 4-4-4 4 9z" style="stroke:#ffaf37;stroke-width:2"/></svg>
